src/assets/svg/icons/fa/nuevos/classic/duotone/worm classic duotone.svg

<svg xmlns="http://www.w3.org/2000/svg" viewBox="0 0 512 512"><!--! Font Awesome Pro 6.4.0 by @fontawesome - https://fontawesome.com License - https://fontawesome.com/license (Commercial License) Copyright 2023 Fonticons, Inc. --><defs><style>.fa-secondary{opacity:.4}</style></defs><path class="fa-primary" d="M384 88a24 24 0 1 1 48 0 24 24 0 1 1 -48 0z"/><path class="fa-secondary" d="M288 96c0-53 43-96 96-96h38.4C471.9 0 512 40.1 512 89.6V176v16V360c0 83.9-68.1 152-152 152s-152-68.1-152-152V312c0-30.9-25.1-56-56-56s-56 25.1-56 56V464c0 26.5-21.5 48-48 48s-48-21.5-48-48V312c0-83.9 68.1-152 152-152s152 68.1 152 152v48c0 30.9 25.1 56 56 56s56-25.1 56-56V192H384c-53 0-96-43-96-96zm144-8a24 24 0 1 0 -48 0 24 24 0 1 0 48 0z"/></svg>

<svg xmlns="http://www.w3.org/2000/svg" viewBox="0 0 512 512"><defs><style>.fa-secondary{opacity:.4}</style></defs><path class="fa-primary" d="M432 88C432 101.3 421.3 112 408 112C394.7 112 384 101.3 384 88C384 74.75 394.7 64 408 64C421.3 64 432 74.75 432 88z"/><path class="fa-secondary" d="M288 96C288 42.98 330.1 0 384 0H422.4C471.9 0 512 40.12 512 89.6V360C512 443.9 443.9 512 360 512C276.1 512 208 443.9 208 360V312C208 281.1 182.9 256 152 256C121.1 256 96 281.1 96 312V464C96 490.5 74.51 512 48 512C21.49 512 0 490.5 0 464V312C0 228.1 68.05 160 152 160C235.9 160 304 228.1 304 312V360C304 390.9 329.1 416 360 416C390.9 416 416 390.9 416 360V192H384C330.1 192 288 149 288 96zM408 64C394.7 64 384 74.75 384 88C384 101.3 394.7 112 408 112C421.3 112 432 101.3 432 88C432 74.75 421.3 64 408 64z"/></svg>
